svg/reload.svg

<svg xmlns="http://www.w3.org/2000/svg" viewBox="0 0 24 24"><path d="M2 12a9 9 0 0 0 9 9c2.39 0 4.68-.94 6.4-2.6l-1.5-1.5A6.7 6.7 0 0 1 11 19c-6.24 0-9.36-7.54-4.95-11.95S18 5.77 18 12h-3l4 4h.1l3.9-4h-3a9 9 0 0 0-18 0"/></svg>

<?xml version="1.0" encoding="UTF-8"?><!DOCTYPE svg PUBLIC "-//W3C//DTD SVG 1.1//EN" "http://www.w3.org/Graphics/SVG/1.1/DTD/svg11.dtd"><svg xmlns="http://www.w3.org/2000/svg" xmlns:xlink="http://www.w3.org/1999/xlink" version="1.1" id="mdi-reload" width="24" height="24" viewBox="0 0 24 24"><path d="M2 12C2 16.97 6.03 21 11 21C13.39 21 15.68 20.06 17.4 18.4L15.9 16.9C14.63 18.25 12.86 19 11 19C4.76 19 1.64 11.46 6.05 7.05C10.46 2.64 18 5.77 18 12H15L19 16H19.1L23 12H20C20 7.03 15.97 3 11 3C6.03 3 2 7.03 2 12Z" /></svg>
